X:3447
T:Corporal Cazy. JC.018
M:6/8
L:1/8
Q:80
S:John Clare,Poet,Helpston.(1793-1864)
R:Misc.
O:England
A:Northamptonshire
N:Sounds like it's going to be Irish Washerwoman, then isn't. CGP
Z:P Headford
K:G
(d/c/)|BGG DGG|BGG dcB|eAA EAA|cAA {f}edc|!
BGG DGG|BGG BDD|e>fg d(c/B/)(A/G/)|dGG (B>cd)|!
g6|BGG DGG|BGG (dc)B|eAA EAA|cAA edc|!
gee fdd|ecc g2d|b3-b>ag|gfe d(c/B/)(A/G/)|!
dGG (B>c)d|gee fdd|ecc dBB|
{a}g/f/g/a/b {a}g/f/g/a/b|GGG G2|]
W:Song text exists. See Deacon.


